flaticon/essential/repeat-1.svg

<svg xmlns="http://www.w3.org/2000/svg" width="32" height="32" viewBox="0 0 24 24">
    <path d="M 13.96875 8 L 10.566406 10.476562 C 10.386719 10.605469 10.347656 10.855469 10.476562 11.035156 C 10.554688 11.144531 10.675781 11.199219 10.800781 11.199219 C 10.882812 11.199219 10.964844 11.175781 11.035156 11.125 L 15.878906 7.601562 L 11.035156 4.078125 C 10.855469 3.945312 10.605469 3.984375 10.476562 4.164062 C 10.347656 4.34375 10.386719 4.59375 10.566406 4.722656 L 13.96875 7.199219 L 9.199219 7.199219 C 6.332031 7.199219 4 9.53125 4 12.398438 C 4 12.621094 4.179688 12.800781 4.398438 12.800781 C 4.621094 12.800781 4.800781 12.621094 4.800781 12.398438 C 4.800781 9.972656 6.773438 8 9.199219 8 Z M 13.96875 8"/>
    <path d="M 12 0 C 5.382812 0 0 5.382812 0 12 C 0 18.617188 5.382812 24 12 24 C 18.617188 24 24 18.617188 24 12 C 24 5.382812 18.617188 0 12 0 Z M 12 23.199219 C 5.824219 23.199219 0.800781 18.175781 0.800781 12 C 0.800781 5.824219 5.824219 0.800781 12 0.800781 C 18.175781 0.800781 23.199219 5.824219 23.199219 12 C 23.199219 18.175781 18.175781 23.199219 12 23.199219 Z M 12 23.199219"/>
    <path d="M 19.199219 11.199219 C 18.980469 11.199219 18.800781 11.378906 18.800781 11.601562 C 18.800781 14.027344 16.824219 16 14.398438 16 L 9.628906 16 L 13.035156 13.523438 C 13.214844 13.394531 13.253906 13.144531 13.125 12.964844 C 12.992188 12.785156 12.742188 12.746094 12.566406 12.875 L 7.71875 16.398438 L 12.566406 19.921875 C 12.636719 19.976562 12.71875 20 12.800781 20 C 12.921875 20 13.046875 19.941406 13.125 19.835938 C 13.253906 19.65625 13.214844 19.40625 13.035156 19.277344 L 9.628906 16.800781 L 14.398438 16.800781 C 17.265625 16.800781 19.601562 14.46875 19.601562 11.601562 C 19.601562 11.378906 19.421875 11.199219 19.199219 11.199219 Z M 19.199219 11.199219"/>
</svg>

<svg xmlns="http://www.w3.org/2000/svg" width="32" height="32" viewBox="0 0 24 24">
    <path d="M13.969 8l-3.403 2.477a.4.4 0 1 0 .47.648l4.843-3.523-4.844-3.524a.396.396 0 0 0-.558.086.4.4 0 0 0 .09.559l3.402 2.476h-4.77A5.205 5.205 0 0 0 4 12.4a.401.401 0 1 0 .8 0A4.403 4.403 0 0 1 9.2 8zm0 0"/>
    <path d="M12 0C5.383 0 0 5.383 0 12s5.383 12 12 12 12-5.383 12-12S18.617 0 12 0zm0 23.2C5.824 23.2.8 18.175.8 12 .8 5.824 5.825.8 12 .8 18.176.8 23.2 5.825 23.2 12c0 6.176-5.024 11.2-11.2 11.2zm0 0"/>
    <path d="M19.2 11.2a.401.401 0 0 0-.4.402A4.406 4.406 0 0 1 14.399 16h-4.77l3.407-2.477a.4.4 0 1 0-.469-.648L7.72 16.398l4.847 3.524c.07.055.153.078.235.078a.4.4 0 0 0 .234-.723L9.63 16.801h4.77a5.208 5.208 0 0 0 5.203-5.2.402.402 0 0 0-.403-.402zm0 0"/>
</svg>
